X:1
T:6 Songs, Op.3
T:In der Fremde
T:5. In der Fremde
T:Johannes Brahms
T:Joseph von Eichendorff
T:6 Songs, Op.3
T:OpenScore (CC0)
T:OpenScore (CC0)
C:Johannes Brahms
Z:Joseph von Eichendorff
Z:OpenScore (CC0)
%%score 1 { ( 2 3 ) | ( 4 5 ) }
L:1/8
Q:1/4=75
M:4/4
K:A
V:1 treble nm="Singstimme\nVoice"
V:2 treble nm="Pianoforte"
V:3 treble 
V:4 bass 
V:5 bass 
V:1
"^Poco agitato" z2 | z8 | z8 |[Q:1/4=65]"_T" z8 | z4 z2[Q:1/4=75]"_a tempo" A!p!A | %5
w: ||||Aus der|
 A2 (GA) B2 G G | c2 B2 A2 c2 |!<(! c2 B c!<)! d2 B2 | c2 z2 z4 | z2!p!!<(! A4 A2!<)! | %10
w: Hei- mat * hin- ter den|Blit- zen rot, da|kom- men die Wol- ken|her.|A- ber|
 A2 G A!<(! B2 G G!<)! | c2!<(! B2 A2 c2!<)! |!f! f2 e f =g2 e2 | f2!>(! !>!A4 A A!>)! | %14
w: Va- ter und Mut- ter sind|lan- ge tot, es|kennt mich dort kei- ner|mehr, kennt mich  dort|
!pp! A6 A2 |[Q:1/4=65]"^T"!>(!"^dim." A8!>)![Q:1/4=65]"_T" | z4 z2[Q:1/4=75]"^a tempo"!p! A2 || %17
w: kei- ner|mehr.|Wie|
 A2 G A B2 G G | c2 B2 A2 c2 | c2 B c d2 B2 |!<(! e8-!<)! | e2 d2 c2!p! A2- | A2 (GA) B2 G G | %23
w: bald, ach wie bald kommt die|stil- le Zeit, da|ru- he ich auch, und|ü-|* ber mir rauscht|* die * schö- ne Wald-|
[Q:1/4=60]"_T"[Q:1/4=60]"^T""^dim." c2 B2 A2 z2 | z4[Q:1/4=75]"^a tempo" z2!<(! c2!<)! | %25
w: ein- sam- keit,|und|
!f! f2 (ef) =g2 e e | c z f4[Q:1/4=65]"^T""^dim." d2[Q:1/4=65]"^T" | B2 d4 B2 |!p! !fermata!c6 |] %29
w: kei- ner * kennt mich mehr|hier, kei- ner|kennt mich mehr|hier.|
V:2
 (F2 | F2 ^EF G2 E2 | A2 G2 F2 A2) |"^dim."!<(! (A2 GB!<)! d2!>(! B2 | GCGC GC!>)![FA]C) | %5
 [FA]C[^EG][FA] [GB]C[EG]C | [Ac]C[GB]C [FA]C[Ac]C |!<(! [Ac]E[GB][Ac]!<)! [Bd]E[GB]E | %8
 [Ac]EBE BEGE | c4 z4 | [FA]C[^EG][FA] [GB]C[EG]C | [Ac]C[GB]C!<(! [FA]C[Ac]F!<)! | %12
!f! [df]A[ce][Adf] [e=g]A[ce]A | f2 =g4 e2 | f2!pp! =g4 e2 | [df]8 | AFAF AF-[FA]C || %17
!p! [FA]C[^EG][FA] [GB]C[EG]C | [Ac]C[GB]C [FA]C[Ac]C | [Ac]E[GB][Ac] [Bd]E[GB]E | %20
 [ce]E[Bd]E [Ac]E cE | c!>(!EBE AE!>)!AC | [FA]C[^EG][FA] [GB]C[EG]C | %23
"_dim." [Ac]C[GB]C FC!arpeggio!^A"_sostenuto"C | c2 B2 ^A2 c2 |!f! f2 ef !>!=g2 e2 | c2 !>!f4 d2 | %27
 B2 !>!d4 B2 |!p! !fermata![C^Ac]6 |] %29
V:3
 FC | FC^EC GDED | ADGD FCAC | ACGC dCBC | G2 x6 | x8 | x8 | x8 | x2 !>!d4 B2 | A!>(!CAC AC!>)!AC | %10
 x8 | x8 | x8 | dAe!>(!A eAcA!>)! | dAeA eAcA | dFAF A"_dim."F!>(!AF | x4!>)! x4 || x8 | x8 | x8 | %20
 x6 !>!e2- | (e2 d2 c2) x2 | x8 | x4 A2 !arpeggio!!>!c2- | ^ACGC FCAF | dFcd eFcF | ^AFdF dFBF | %27
 ^GFBF BFGF | x6 |] %29
V:4
!p! A,2 | A,2 (G,A, B,2 G,2) | (C2 B,2 A,2 F,2) | F,2 ^E,G, B,2 G,2 | ^E,4!p! z4 | %5
!ped! !arpeggio![F,,C,A,]2 ([^E,G,][F,A,]!ped-up! [G,B,]2 [E,G,]2) | ([A,C]2 [G,B,]2 [F,A,]2) z2 | %7
!ped! [E,,E,]2 ([G,B,][A,C]!ped-up! [B,D]2 [G,B,]2) | [A,C]2 (!>![A,,-E,-G,]6 |!p! [A,,E,A,]4) z4 | %10
!ped! !arpeggio![F,,C,A,]2 ([^E,G,][F,A,]!ped-up! [G,B,]2 [E,G,]2) | ([A,C]2 [G,B,]2 [F,A,]2) z2 | %12
 !>![D,,A,,D,]2 ([CE][DF]) [E=G]2 [CE]2 | [DF]2 (!>![D,-A,-C]6 | [D,A,D]2) !>![D,,A,,]6- | %15
 [D,,A,,]8 | z8 ||!ped! !arpeggio![F,,C,A,]2 ([^E,G,][F,A,]!ped-up! [G,B,]2 [E,G,]2) | %18
 ([A,C]2 [G,B,]2 [F,A,]2) z2 |!ped! [E,,E,]2 ([G,B,][A,C]!ped-up! [B,D]2 [G,B,]2) | %20
 ([CE]2 [B,D]2 [A,C]2) !>![A,,E,G,]2- | ([A,,-E,-G,]4 [A,,E,A,]2) z2 | %22
!ped! !arpeggio![F,,C,A,]2 ([^E,G,][F,A,]!ped-up! [G,B,]2 [E,G,]2) | %23
 ([A,C]2 [G,B,]2 A,) z!ped! !arpeggio![C,^E,]2- | ([F,,-C,-E,]4 [F,,C,F,]2)!ped-up! z2 | %25
!<(!!ped! [F,,F,]2 (.[CE]!<)!.[DF])!ped-up!!>(! [E=G]2 [CE]2!>)! | [^A,C]2"^dim." [DF]4 [B,D]2 | %27
 [^G,B,]2 [B,D]4 [G,B,]2 | !arpeggio!!fermata![F,,C,^A,]6 |] %29
V:5
 x2 | x8 | x8 | z4 C,4 | C,4 z4 | x2 C,2- C,4 | C,4 F,2 x2 | x2 E,2- E,4 | x8 | x8 | x2 C,2- C,4 | %11
 C,4 F,2 x2 | x2 A,2 A,4 | x8 | x8 | x8 | x8 || x2 C,2- C,4 | C,4 F,2 x2 | x2 E,2- E,4 | E,4 x4 | %21
 x8 | x2 C,2- C,4 | C,4 F, x !arpeggio!F,,2- | x8 | x2 F,2 F,4- | F,2 F,6- | F,2 !>!F,6 | x6 |] %29

